apps/earn-protocol-landing-page/public/img/landing-page/protocols/sky.svg

<svg width="39" height="38" viewBox="0 0 39 38" fill="none" xmlns="http://www.w3.org/2000/svg">
<path d="M4.27344 7.92545C4.85298 7.12778 5.49431 6.37688 6.19151 5.67969L6.42542 5.80862L19.3771 18.8299L19.5 18.9882L4.27344 7.92545Z" fill="#FFFBFD"/>
<path opacity="0.7" d="M6.19531 5.67929C9.00579 2.86881 12.6339 1.02021 16.5596 0.398438L16.6897 0.756326L19.5038 18.7383V18.9878L6.19531 5.67929Z" fill="#FFFBFD"/>
<path opacity="0.5" d="M28.0467 2.21875C28.9246 2.66621 29.766 3.18191 30.5632 3.76111L30.5295 4.05426L19.5682 18.9329L19.5 18.9874L28.0467 2.21875Z" fill="#FFFBFD"/>
<path opacity="0.9" d="M38.3211 18.9883C38.3211 20.9632 38.0103 22.926 37.4 24.8043L36.9548 24.876L19.6384 19.0588L19.5 18.9883H38.3211Z" fill="#FFFBFD"/>
<path opacity="0.7" d="M37.4001 24.8039C36.7898 26.6823 35.8877 28.4529 34.7269 30.0507L34.2979 29.9779L19.589 19.0807L19.5 18.9883L37.4001 24.8039Z" fill="#FFFBFD"/>
<path opacity="0.3" d="M25.3231 36.8882C22.4983 37.806 19.4964 38.0423 16.5628 37.5777L16.4453 37.2169L19.4222 19.3085L19.5071 18.9883L25.3231 36.8882Z" fill="#FFFBFD"/>
<path opacity="0.7" d="M16.5565 37.5776C15.5827 37.4234 14.6225 37.1929 13.6848 36.8882L13.6328 36.4529L19.3935 19.1847L19.5008 18.9883L16.5565 37.5776Z" fill="#FFFBFD"/>
<path opacity="0.9" d="M13.6921 36.8882C11.8137 36.2779 10.0431 35.3758 8.44531 34.2148V33.8742L19.3159 19.1802L19.5081 18.9883L13.6921 36.8882Z" fill="#FFFBFD"/>
<path opacity="0.9" d="M2.73107 27.5357C1.38264 24.8893 0.679688 21.9613 0.679688 18.9912L0.920442 18.9023H18.8919L19.5008 18.9912L2.73107 27.5357Z" fill="#FFFBFD"/>
<path opacity="0.5" d="M16.5625 0.399868C19.4966 -0.0650215 22.499 0.171206 25.3242 1.08923L19.5079 18.9891L16.5625 0.399868Z" fill="#FFFBFD"/>
<path opacity="0.3" d="M30.5628 3.76172C33.7782 6.09781 36.1715 9.39177 37.3998 13.1716L19.5 18.9882L30.5628 3.76172Z" fill="#FFFBFD"/>
<path d="M8.43726 34.2148C6.83945 33.054 5.43432 31.6488 4.27344 30.051L19.5 18.9883L8.43726 34.2148Z" fill="#FFFBFD"/>
<path opacity="0.5" d="M0.679688 18.988C0.679688 17.0129 0.990549 15.0502 1.60086 13.1719L19.5008 18.988H0.679688Z" fill="#FFFBFD"/>
<path d="M34.7272 30.0502C33.5664 31.6481 32.1613 33.0533 30.5635 34.2143L19.5 18.9883L34.7272 30.0502Z" fill="#FFFBFD"/>
</svg>

<svg xmlns="http://www.w3.org/2000/svg" width="39" height="38" fill="#fffbfd" xmlns:v="https://vecta.io/nano"><path d="M4.273 7.925A18.82 18.82 0 0 1 6.192 5.68l.234.129L19.377 18.83l.123.158L4.273 7.925z"/><path opacity=".7" d="M6.195 5.679A18.82 18.82 0 0 1 16.56.398l.13.358 2.814 17.982v.25L6.195 5.679z"/><path opacity=".5" d="M28.047 2.219c.878.447 1.719.963 2.516 1.542l-.034.293-10.961 14.879-.068.055 8.547-16.769z"/><path opacity=".9" d="M38.321 18.988a18.82 18.82 0 0 1-.921 5.816l-.445.072-17.316-5.817-.138-.071h18.821z"/><path opacity=".7" d="M37.4 24.804a18.82 18.82 0 0 1-2.673 5.247l-.429-.073-14.709-10.897-.089-.092 17.9 5.816z"/><path opacity=".3" d="M25.323 36.888a18.82 18.82 0 0 1-8.76.69l-.117-.361 2.977-17.908.085-.32 5.816 17.9z"/><path opacity=".7" d="M16.557 37.578c-.974-.154-1.934-.385-2.872-.689l-.052-.435 5.761-17.268.107-.196-2.944 18.589z"/><path opacity=".9" d="M13.692 36.888c-1.878-.61-3.649-1.512-5.247-2.673v-.341L19.316 19.18l.192-.192-5.816 17.9z"/><path opacity=".9" d="M2.731 27.536A18.82 18.82 0 0 1 .68 18.991l.241-.089h17.971l.609.089-16.77 8.545z"/><path opacity=".5" d="M16.563.4a18.82 18.82 0 0 1 8.762.689l-5.816 17.9L16.563.4z"/><path opacity=".3" d="M30.563 3.762a18.82 18.82 0 0 1 6.837 9.41l-17.9 5.817L30.563 3.762z"/><path d="M8.437 34.215a18.82 18.82 0 0 1-4.164-4.164L19.5 18.988 8.437 34.215z"/><path opacity=".5" d="M.68 18.988a18.82 18.82 0 0 1 .921-5.816l17.9 5.816H.68z"/><path d="M34.727 30.05a18.82 18.82 0 0 1-4.164 4.164L19.5 18.988 34.727 30.05z"/></svg>
